X: 3
T: The Legacy
R: jig
M: 6/8
L: 1/8
K: Gmaj
|: e | GGG BGB | d2e g3 | GGG BGB | dBA A2e |GGG BGB | d2e g3 | agf g2e | dBA A2 :||: e | A2e edB | d2e dBA | A2e edB | dBA A2e |A2e edB | d2e g2e | agf g2e | dBA A2 :|


Tune 2259	Setting 2259

